packages/foundations/assets/icons/functional/images/business & payment/tickets_20.svg

<svg width="20" height="20" viewBox="0 0 20 20" fill="none" xmlns="http://www.w3.org/2000/svg">
<g clip-path="url(#clip0_184_167)">
<path fill-rule="evenodd" clip-rule="evenodd" d="M9.98704 6C11.091 6 12 6.878 12 7.984V15.984C12 17.089 11.09 18 9.98704 18H4.01304C3.7481 18.0012 3.48555 17.9498 3.24059 17.8489C2.99562 17.748 2.77311 17.5995 2.5859 17.412C2.3987 17.2245 2.25053 17.0018 2.14997 16.7567C2.04941 16.5116 1.99845 16.2489 2.00004 15.984V7.984C2.00004 6.878 2.87704 6 4.01304 6H9.98704ZM10 8.016H3.98404V16.016H10V8.016ZM5.50004 14V12H6.50004V14H5.50004ZM7.49604 14V12H8.49604V14H7.49604ZM8.00004 3.005C8.00004 2.455 8.45504 2 9.00704 2H15.987C17.123 2 18 2.908 18 4.01V11.99C18 13.092 17.123 14 15.987 14H15.013C14.7468 13.9987 14.4918 13.8924 14.3035 13.7043C14.1151 13.5161 14.0086 13.2612 14.007 12.995C14.0081 12.7285 14.1144 12.4732 14.3029 12.2848C14.4913 12.0964 14.7466 11.9901 15.013 11.989H15.987V4.011H9.00704C8.74046 4.00995 8.48509 3.90365 8.29649 3.71525C8.1079 3.52684 8.00135 3.27158 8.00004 3.005Z" fill="#1A1C1F"/>
</g>
<defs>
<clipPath id="clip0_184_167">
<rect width="20" height="20" fill="white"/>
</clipPath>
</defs>
</svg>

<svg xmlns="http://www.w3.org/2000/svg" width="20" height="20" fill="none"><g clip-path="url(#a)"><path fill="#1A1C1F" fill-rule="evenodd" d="M9.987 6C11.091 6 12 6.878 12 7.984v8C12 17.089 11.09 18 9.987 18H4.013A2.004 2.004 0 0 1 2 15.984v-8C2 6.878 2.877 6 4.013 6zM10 8.016H3.984v8H10zM5.5 14v-2h1v2zm1.996 0v-2h1v2zM8 3.005C8 2.455 8.455 2 9.007 2h6.98C17.123 2 18 2.908 18 4.01v7.98c0 1.102-.877 2.01-2.013 2.01h-.974a1.01 1.01 0 0 1-1.006-1.005 1.01 1.01 0 0 1 1.006-1.006h.974V4.011h-6.98A1.01 1.01 0 0 1 8 3.005" clip-rule="evenodd"/></g><defs><clipPath id="a"><path fill="#fff" d="M0 0h20v20H0z"/></clipPath></defs></svg>
